dist/images/search-big.svg

<svg width="64" height="64" viewBox="0 0 64 64" fill="none" xmlns="http://www.w3.org/2000/svg">
<g clip-path="url(#clip0)">
<path d="M47.174 0.780009C46.5068 0.600634 45.8215 0.995509 45.6422 1.66201C45.4628 2.32863 45.8577 3.01451 46.5242 3.19401C55.3418 5.56838 61.5002 13.6134 61.5002 22.758C61.5002 33.9303 52.4118 43.0196 41.2405 43.0196C30.0693 43.0196 20.9809 33.9303 20.9809 22.758C20.9809 13.619 27.1352 5.57538 35.947 3.19738C36.6135 3.01751 37.008 2.33138 36.8282 1.66488C36.6484 0.998259 35.9622 0.604009 35.2958 0.783759C25.3955 3.45551 18.4812 12.4918 18.4812 22.7581C18.4812 26.4543 19.3674 29.9469 20.9373 33.0361L18.4504 35.5233C17.2715 36.7023 17.0273 38.4668 17.716 39.8896L11.7348 45.8713C11.4204 45.7229 11.0755 45.6416 10.7168 45.6409C10.715 45.6409 10.7134 45.6409 10.7117 45.6409C10.0692 45.6409 9.46566 45.8906 9.01166 46.3445L1.78753 53.5694C-0.595844 55.9529 -0.595844 59.8311 1.78753 62.2148C2.93866 63.366 4.47428 64 6.11153 64C7.74891 64 9.28453 63.366 10.4359 62.2145L17.6529 54.9933C18.1075 54.5421 18.3585 53.9398 18.3598 53.297C18.3605 52.9353 18.2794 52.5869 18.13 52.2694L24.1128 46.286C24.6237 46.5336 25.1889 46.6653 25.7757 46.6658H25.779C26.8014 46.6658 27.7607 46.2698 28.48 45.5503L30.9657 43.0645C34.054 44.6338 37.5455 45.5196 41.2403 45.5196C53.7902 45.5198 64 35.3089 64 22.758C64 12.4854 57.081 3.44763 47.174 0.780009ZM22.1968 44.6669L16.4643 50.3999L13.603 47.5384L19.3345 41.8064L22.1968 44.6669ZM8.66803 60.447C7.98903 61.126 7.08116 61.5 6.11153 61.5C5.14191 61.5 4.23416 61.126 3.55528 60.447C2.14653 59.0381 2.14653 56.7459 3.55528 55.3371L10.7104 48.1813L15.579 53.0504C15.5794 53.0509 15.5798 53.0514 15.5803 53.0518C15.5808 53.0523 15.5813 53.0525 15.5817 53.053L15.8198 53.2911L8.66803 60.447ZM26.7125 43.7828C26.4654 44.03 26.134 44.166 25.7793 44.166C25.7789 44.166 25.7784 44.166 25.778 44.166C25.4249 44.1658 25.0955 44.0303 24.8488 43.7829L24.8487 43.7828C24.8484 43.7825 24.8483 43.7824 24.848 43.7821L20.2185 39.1558C20.2183 39.1555 20.2182 39.1554 20.2179 39.1551C20.2178 39.155 20.2177 39.155 20.2177 39.1549C19.7042 38.6409 19.7042 37.8049 20.2179 37.291L22.238 35.2706C23.9409 37.8486 26.1534 40.061 28.7313 41.7638L26.7125 43.7828Z" fill="#0094FF"/>
<path d="M36.667 17.1666V18.46C36.667 19.1504 37.2266 19.71 37.917 19.71C38.6072 19.71 39.167 19.1504 39.167 18.46V17.1666C39.167 16.0233 40.0971 15.093 41.2404 15.093C42.3836 15.093 43.3137 16.0233 43.3137 17.1666V18.46C43.3137 18.8471 42.8247 19.4313 42.3519 19.9961C41.6202 20.8701 40.7096 21.9578 40.7096 23.3889V25.4263C40.7096 26.1166 41.2692 26.6763 41.9596 26.6763C42.6499 26.6763 43.2096 26.1166 43.2096 25.4263V23.3888C43.2096 22.866 43.7241 22.2515 44.2687 21.6009C44.993 20.7359 45.8137 19.7554 45.8137 18.46V17.1666C45.8137 14.6448 43.7622 12.593 41.2404 12.593C38.7185 12.593 36.667 14.6448 36.667 17.1666Z" fill="#0094FF"/>
<path d="M41.9668 30.3984C41.2765 30.3984 40.7168 30.958 40.7168 31.6484V31.6555C40.7168 32.3459 41.2764 32.902 41.9668 32.902C42.657 32.902 43.2168 32.3389 43.2168 31.6485C43.2168 30.9581 42.657 30.3984 41.9668 30.3984Z" fill="#0094FF"/>
<path d="M24.0859 22.758C24.0859 32.2199 31.7814 39.9176 41.2404 39.9176C50.6994 39.9176 58.3949 32.2199 58.3949 22.758C58.3949 13.2981 50.6994 5.60187 41.2404 5.60187C31.7814 5.60187 24.0859 13.2981 24.0859 22.758ZM55.8951 22.758C55.8951 30.8414 49.3211 37.4176 41.2404 37.4176C33.1598 37.4176 26.5858 30.8414 26.5858 22.758C26.5858 14.6766 33.1598 8.10187 41.2404 8.10187C49.3211 8.10187 55.8951 14.6767 55.8951 22.758Z" fill="#0094FF"/>
<path d="M41.2334 2.5H41.2405C41.9308 2.5 42.4869 1.94037 42.4869 1.25C42.4869 0.559625 41.9236 0 41.2334 0C40.5431 0 39.9834 0.559625 39.9834 1.25C39.9834 1.94037 40.5431 2.5 41.2334 2.5Z" fill="#0094FF"/>
</g>
<defs>
<clipPath id="clip0">
<rect width="64" height="64" fill="white"/>
</clipPath>
</defs>
</svg>

<svg width="64" height="64" fill="none" xmlns="http://www.w3.org/2000/svg"><g clip-path="url(#clip0)" fill="#0094FF"><path d="M47.174.78a1.25 1.25 0 10-.65 2.414C55.342 5.568 61.5 13.614 61.5 22.758c0 11.172-9.088 20.262-20.26 20.262-11.17 0-20.26-9.09-20.26-20.262 0-9.139 6.155-17.183 14.967-19.56a1.25 1.25 0 00-.651-2.414c-9.9 2.672-16.815 11.708-16.815 21.974 0 3.696.886 7.189 2.456 10.278l-2.487 2.487a3.824 3.824 0 00-.734 4.367l-5.981 5.981a2.39 2.39 0 00-1.018-.23h-.005a2.39 2.39 0 00-1.7.703L1.788 53.57a6.12 6.12 0 000 8.646A6.072 6.072 0 006.112 64a6.072 6.072 0 004.324-1.785l7.217-7.222a2.396 2.396 0 00.477-2.724l5.983-5.983a3.81 3.81 0 001.663.38h.003a3.792 3.792 0 002.701-1.116l2.486-2.485A22.618 22.618 0 0041.24 45.52C53.79 45.52 64 35.309 64 22.758 64 12.485 57.081 3.448 47.174.78zM22.197 44.667L16.464 50.4l-2.861-2.862 5.731-5.732 2.863 2.86zM8.668 60.447A3.589 3.589 0 016.112 61.5a3.59 3.59 0 01-2.557-1.053 3.617 3.617 0 010-5.11l7.155-7.156 4.869 4.87h.001l.002.002.238.238-7.152 7.156zm18.044-16.664a1.31 1.31 0 01-.933.383h-.001c-.353 0-.682-.136-.93-.383l-4.63-4.627v-.001a1.32 1.32 0 010-1.864l2.02-2.02a22.944 22.944 0 006.493 6.493l-2.019 2.019z"/><path d="M36.667 17.167v1.293a1.25 1.25 0 102.5 0v-1.293c0-1.144.93-2.074 2.073-2.074 1.144 0 2.074.93 2.074 2.074v1.293c0 .387-.49.971-.962 1.536-.732.874-1.642 1.962-1.642 3.393v2.037a1.25 1.25 0 002.5 0V23.39c0-.523.514-1.137 1.059-1.788.724-.865 1.545-1.846 1.545-3.141v-1.293a4.579 4.579 0 00-4.574-4.574 4.579 4.579 0 00-4.573 4.574zm5.3 13.231c-.69 0-1.25.56-1.25 1.25v.008c0 .69.56 1.246 1.25 1.246a1.253 1.253 0 000-2.504z"/><path d="M24.086 22.758c0 9.462 7.695 17.16 17.154 17.16 9.46 0 17.155-7.698 17.155-17.16 0-9.46-7.696-17.156-17.155-17.156-9.459 0-17.154 7.696-17.154 17.156zm31.81 0c0 8.083-6.575 14.66-14.656 14.66-8.08 0-14.654-6.577-14.654-14.66 0-8.081 6.574-14.656 14.654-14.656 8.081 0 14.655 6.575 14.655 14.656zM41.233 2.5h.008c.69 0 1.246-.56 1.246-1.25S41.924 0 41.233 0a1.25 1.25 0 000 2.5z"/></g><defs><clipPath id="clip0"><path fill="#fff" d="M0 0h64v64H0z"/></clipPath></defs></svg>
